src/assets/chip.svg

<svg width="27" height="27" viewBox="0 0 27 27" fill="none" xmlns="http://www.w3.org/2000/svg">
<path d="M26.0745 8.61418C25.5217 7.19342 24.7412 5.88913 23.7682 4.74924C21.7546 2.38841 18.943 0.739172 15.75 0.202594C15.0169 0.0791163 14.2682 0 13.5 0C12.7318 0 11.9829 0.0791163 11.25 0.202594C8.05692 0.739172 5.2462 2.38795 3.23173 4.74833C2.25962 5.88874 1.47913 7.19257 0.926395 8.61327C0.335679 10.1303 0 11.7742 0 13.5C0 15.086 0.287362 16.6012 0.790089 18.0149C1.30158 19.4529 2.04075 20.7809 2.97856 21.9477C5.00625 24.4701 7.92061 26.238 11.25 26.7974C11.9829 26.9209 12.7318 27 13.5 27C14.2682 27 15.0169 26.9209 15.75 26.7974C19.0793 26.2379 21.9938 24.4701 24.0214 21.948C24.9592 20.7814 25.6984 19.4533 26.2098 18.0154C26.7125 16.6017 27 15.086 27 13.5C27 11.7747 26.6642 10.1308 26.0745 8.61418ZM24.4907 9.52786L22.1299 10.8905C21.6827 9.41399 20.8661 8.09828 19.7877 7.04705L22.1703 5.67156C23.1767 6.78518 23.9695 8.08992 24.4907 9.52786ZM20.7185 13.5C20.7185 17.4802 17.4805 20.7185 13.5 20.7185C9.51938 20.7185 6.28149 17.4802 6.28149 13.5C6.28149 9.51995 9.51944 6.28155 13.5 6.28155C17.4805 6.28155 20.7185 9.51995 20.7185 13.5ZM13.5 1.80001C14.2699 1.80001 15.0213 1.87958 15.75 2.02193V4.77727C15.0293 4.59095 14.2778 4.48154 13.5 4.48154C12.7221 4.48154 11.9706 4.591 11.25 4.77727V2.02193C11.9785 1.87958 12.73 1.80001 13.5 1.80001ZM4.83039 5.67117L7.21314 7.04705C6.13479 8.09783 5.3174 9.41353 4.87 10.8901L2.50923 9.5274C3.03128 8.08947 3.82408 6.78473 4.83039 5.67117ZM2.37304 17.1009L4.7689 15.718C5.15035 17.2187 5.90535 18.5683 6.93448 19.6638L4.56145 21.0336C3.59561 19.8888 2.84587 18.5577 2.37304 17.1009ZM13.5 25.2C12.73 25.2 11.9785 25.1204 11.25 24.9781V22.2227C11.9706 22.4091 12.7221 22.5185 13.5 22.5185C14.2778 22.5185 15.0293 22.4091 15.75 22.2227V24.9781C15.0213 25.1204 14.2699 25.2 13.5 25.2ZM22.4375 21.0336L20.0654 19.6638C21.0945 18.5687 21.8496 17.2187 22.231 15.718L24.6269 17.1014C24.154 18.5577 23.4043 19.8888 22.4375 21.0336Z" fill="white"/>
<path d="M14.2629 12.5192C13.115 12.0872 12.643 11.8037 12.643 11.3581C12.643 10.9802 12.9261 10.6023 13.8041 10.6023C14.3103 10.6023 14.7217 10.6863 15.0487 10.7882C15.2341 10.8458 15.4353 10.8243 15.6059 10.7293C15.7755 10.6348 15.8985 10.4744 15.9469 10.2858L15.9592 10.2393C16.069 9.80911 15.8106 9.37047 15.3799 9.25931C15.0495 9.17364 14.6566 9.11125 14.1821 9.09011V8.58326C14.1821 8.23877 13.9267 7.93739 13.5838 7.90529C13.1905 7.8685 12.8592 8.17751 12.8592 8.56371V9.1846C11.4144 9.46801 10.5776 10.3997 10.5776 11.5875C10.5776 12.8971 11.5629 13.572 13.0078 14.058C14.0063 14.3955 14.4386 14.7195 14.4386 15.2322C14.4386 15.7723 13.9122 16.0695 13.1422 16.0695C12.5912 16.0695 12.0717 15.9574 11.6209 15.7975C11.4328 15.7302 11.2245 15.7464 11.0478 15.8405C10.8712 15.9345 10.7419 16.0979 10.6927 16.2923L10.6866 16.3152C10.5688 16.7752 10.8342 17.2459 11.2886 17.383C11.7342 17.517 12.2581 17.6115 12.7915 17.6353V18.2382C12.7915 18.6035 13.0877 18.8996 13.4529 18.8996C13.8182 18.8996 14.1144 18.6035 14.1144 18.2382V17.5408C15.6665 17.271 16.5173 16.2448 16.5173 15.0434C16.5173 13.8288 15.8696 13.0861 14.2629 12.5192Z" fill="white"/>
</svg>

<svg xmlns="http://www.w3.org/2000/svg" width="27" height="27" fill="none"><path fill="#fff" d="M26.075 8.614A13.471 13.471 0 0 0 15.75.203 13.51 13.51 0 0 0 13.5 0c-.768 0-1.517.08-2.25.203A13.468 13.468 0 0 0 .926 8.613 13.43 13.43 0 0 0 0 13.5c0 1.586.287 3.101.79 4.515a13.48 13.48 0 0 0 2.189 3.933 13.47 13.47 0 0 0 8.271 4.85c.733.123 1.482.202 2.25.202s1.517-.08 2.25-.203a13.472 13.472 0 0 0 8.271-4.849 13.476 13.476 0 0 0 2.189-3.933c.502-1.413.79-2.929.79-4.515 0-1.725-.336-3.37-.925-4.886Zm-1.584.914L22.13 10.89a9.024 9.024 0 0 0-2.342-3.843l2.382-1.375a11.691 11.691 0 0 1 2.32 3.856ZM20.718 13.5c0 3.98-3.238 7.218-7.218 7.218S6.281 17.48 6.281 13.5 9.52 6.282 13.5 6.282c3.98 0 7.218 3.238 7.218 7.218ZM13.5 1.8c.77 0 1.521.08 2.25.222v2.755a8.968 8.968 0 0 0-2.25-.295c-.778 0-1.53.109-2.25.295V2.022c.729-.142 1.48-.222 2.25-.222ZM4.83 5.671l2.383 1.376A9.024 9.024 0 0 0 4.87 10.89L2.51 9.527a11.708 11.708 0 0 1 2.32-3.856Zm-2.457 11.43 2.396-1.383a8.996 8.996 0 0 0 2.165 3.946l-2.373 1.37A11.7 11.7 0 0 1 2.373 17.1ZM13.5 25.2c-.77 0-1.521-.08-2.25-.222v-2.755c.72.186 1.472.296 2.25.296s1.53-.11 2.25-.296v2.755c-.729.142-1.48.222-2.25.222Zm8.938-4.166-2.373-1.37a8.994 8.994 0 0 0 2.166-3.946l2.396 1.383a11.69 11.69 0 0 1-2.19 3.933Z"/><path fill="#fff" d="M14.263 12.52c-1.148-.433-1.62-.716-1.62-1.162 0-.378.283-.756 1.161-.756.506 0 .918.084 1.245.186a.711.711 0 0 0 .898-.502l.012-.047a.806.806 0 0 0-.58-.98 5.78 5.78 0 0 0-1.197-.169v-.507a.675.675 0 0 0-.598-.678.662.662 0 0 0-.725.659v.62c-1.445.284-2.281 1.216-2.281 2.404 0 1.31.985 1.984 2.43 2.47.998.338 1.43.662 1.43 1.174 0 .54-.526.838-1.296.838-.55 0-1.07-.113-1.521-.273a.71.71 0 0 0-.928.495l-.006.023c-.118.46.147.93.602 1.068.445.134.97.229 1.502.252v.603a.661.661 0 0 0 1.323 0v-.697c1.552-.27 2.403-1.296 2.403-2.498 0-1.214-.647-1.957-2.254-2.524Z"/></svg>
